X: 3388
T: Beoga
R: reel
M: 4/4
K: Bminor
|:B2 bB abfe|defe (3fed cd|(3 BBB bB abd'c'|b2 (3bbb befa|
ab (3bbb abfe|defe (3fed cd|Bcde fB (3BBB|fB (3efg fedc:|
|:Bcde fB (3BBB|^Acde fA (3AAA|Acde fA (3AAA|^Gcde fG (3GGG|
Gcde fgfe|dcEc dcFc|Gcde fgfe|dc (3ccB ^A2 F:|

